X:1
T:God Almighty in His Wisdom
T:God Almighty in His Wisdom
T:Ira David Sankey, 1892
T:Anna P. Williams, 2009, & Richard Adams, 2017
T:Public Domain Courtesy of the Cyber Hymnal™
T:Public Domain Courtesy of the Cyber Hymnal™
C:Ira David Sankey, 1892
Z:Public Domain
Z:Courtesy of the Cyber Hymnal™
%%score ( 1 2 ) ( 3 4 )
L:1/8
Q:1/4=110
M:4/4
K:C
V:1 treble 
V:2 treble 
V:3 bass 
V:4 bass 
V:1
 [CE][DF] | [EG]2 [Ec]2 [GB]2 [FA]2 | [EG]2 [CE]4 [CE][EG] | [DF]2 [DF]2 [CE]2 [CE]2 | %4
w: 1.~God Al-|migh- ty in His|wis- dom, Has cre-|at- ed all things|
w: 2.~But they|would not heed in-|struc- tion From the|God who gave them|
w: 3.~But God’s|wrath lasts not for-|ev- er, Sin can-|not His pur- pose|
w: 4.~In Ju-|de- a’s fields that|Christ- mas Shep- herds|heard the an- gels|
w: 5.~How we|love the Christ- mas|glit- ter, Love- ly|trees and car- ols|
 [B,D]6 [CE][DF] | [EG]2 [Ec]2 [GB]2 [FA]2 | [EG]2 [CE]4 C[CD] | [CE]2 [DF]2 [CE]2 [B,D]2 | %8
w: well: Num- bered|all the stars of|hea- ven, Built the|earth on which we|
w: breath, So they|list- ened to the|ser- pent, And then|sin gave birth to|
w: thwart; He will|not a- ban- don|mer- cy, Or the|souls kept in His|
w: sing: In the|sad, deep hour of|dark- ness God had|sent the Sa- vior-|
w: bright; But the|can- dle flame soon|flick- ers, And a-|gain de- parts the|
 C6 [EG][EG] | [FA]2 [CF]2 [Cc]2 [FA]2 | [EG]2 [Ec]4 [Ec][Ec] | [DB]2 [DA]2 [DG]2 [C^F]2 | %12
w: dwell. There He|plant- ed us a|gar- den, Full of|fruit and shin- ing|
w: death. Par- a-|dise was lost to|mor- tals, Curs- èd|ground be- came their|
w: heart. So, though|sin was born in|E- den, And man|wore the mark of|
w: King! In a|hum- ble, low- ly|man- ger Mo- ther-|love had wrapped the|
w: light; When the|mirth has ebbed to|si- lence, Can you|hear the Sav- ior’s|
 [B,G]6 [CE][DF] | [EG]2 [Ec]2 [GB]2 [FA]2 | [EG]2 [CE]4 C[CD] | [CE]2 [DF]2 [CE]2 [B,D]2 | C6 |] %17
w: flowers, Where Love|walked with man and|wo- man, In the|qui- et ev- en-|ing|
w: fate; Love the|Tree of Life had|hid- den, Flam- ing|sword barred E- den’s|gate.|
w: Cain, Love pur-|sued us to a|sta- ble, Where a|ho- ly Child was|lain.|
w: Child; In the|ho- ly Babe, the|God- send, Love was|flesh, but un- de-|filed.|
w: voice, Of- fering|life and light, and|par- don? Make e-|ter- nal Love your|choice.|
V:2
 x2 | x8 | x8 | x8 | x8 | x8 | x6 C x | x8 | C6 x2 | x8 | x8 | x8 | x8 | x8 | x6 C x | x8 | C6 |] %17
V:3
 [C,G,][C,G,] | [C,C]2 [C,G,]2 [C,A,]2 [C,B,]2 | [C,C]2 [C,G,]4 [C,G,][C,G,] | %3
 [B,,G,]2 [B,,G,]2 [B,,G,]2 [B,,G,]2 | [G,,G,]6 [C,G,][C,G,] | [C,C]2 [C,G,]2 [C,A,]2 [C,B,]2 | %6
 [C,C]2 [C,G,]4 [E,G,][F,A,] | G,2 G,2 [G,,G,]2 [G,,F,]2 | [C,E,]6 [C,C][C,C] | %9
 [F,C]2 [F,A,]2 [F,A,]2 [F,C]2 | [C,C]2 [C,G,]4 [C,G,][C,G,] | [D,G,]2 [D,C]2 [D,B,]2 [D,A,]2 | %12
 [G,,G,]6 [C,G,][C,G,] | [C,C]2 [C,G,]2 [C,A,]2 [C,B,]2 | [C,C]2 [C,G,]4 [E,G,][F,A,] | %15
 G,2 G,2 [G,,G,]2 [G,,F,]2 | [C,E,]6 |] %17
V:4
 x2 | x8 | x8 | x8 | x8 | x8 | x8 | G,2 G,2 x4 | x8 | x8 | x8 | x8 | x8 | x8 | x8 | G,2 G,2 x4 | %16
 x6 |] %17

